flaticon/army-badges/target-9.svg

<svg xmlns="http://www.w3.org/2000/svg" width="32" height="32" viewBox="0 0 24 24">
    <path d="M 12 0 C 5.398438 0 0 5.359375 0 12 C 0 18.640625 5.398438 24 12 24 C 18.601562 24 24 18.601562 24 12 C 24 5.398438 18.601562 0 12 0 Z M 12 23.199219 C 5.839844 23.199219 0.800781 18.160156 0.800781 12 C 0.800781 5.839844 5.839844 0.800781 12 0.800781 C 18.160156 0.800781 23.199219 5.839844 23.199219 12 C 23.199219 18.160156 18.160156 23.199219 12 23.199219 Z M 12 23.199219"/>
    <path d="M 12 1.601562 C 6.28125 1.601562 1.601562 6.28125 1.601562 12 C 1.601562 17.761719 6.28125 22.398438 12 22.398438 C 17.71875 22.398438 22.398438 17.761719 22.398438 12 C 22.398438 6.28125 17.71875 1.601562 12 1.601562 Z M 21.589844 11.601562 L 20 11.601562 L 20 10.800781 C 20 10.558594 19.839844 10.398438 19.601562 10.398438 C 19.359375 10.398438 19.199219 10.558594 19.199219 10.800781 L 19.199219 11.601562 L 18.386719 11.601562 C 18.1875 8.398438 15.601562 5.8125 12.398438 5.613281 L 12.398438 4.800781 L 13.199219 4.800781 C 13.441406 4.800781 13.601562 4.640625 13.601562 4.398438 C 13.601562 4.160156 13.441406 4 13.199219 4 L 12.398438 4 L 12.398438 2.410156 C 17.363281 2.613281 21.386719 6.636719 21.589844 11.601562 Z M 15.601562 10.398438 C 15.359375 10.398438 15.199219 10.558594 15.199219 10.800781 L 15.199219 11.601562 L 14.398438 11.601562 C 14.160156 11.601562 14 11.761719 14 12 C 14 12.238281 14.160156 12.398438 14.398438 12.398438 L 15.199219 12.398438 L 15.199219 13.199219 C 15.199219 13.441406 15.359375 13.601562 15.601562 13.601562 C 15.839844 13.601562 16 13.441406 16 13.199219 L 16 12.398438 L 17.585938 12.398438 C 17.386719 15.164062 15.164062 17.386719 12.398438 17.585938 L 12.398438 16 L 13.199219 16 C 13.441406 16 13.601562 15.839844 13.601562 15.601562 C 13.601562 15.359375 13.441406 15.199219 13.199219 15.199219 L 12.398438 15.199219 L 12.398438 14.398438 C 12.398438 14.160156 12.238281 14 12 14 C 11.761719 14 11.601562 14.160156 11.601562 14.398438 L 11.601562 15.199219 L 10.800781 15.199219 C 10.558594 15.199219 10.398438 15.359375 10.398438 15.601562 C 10.398438 15.839844 10.558594 16 10.800781 16 L 11.601562 16 L 11.601562 17.585938 C 8.835938 17.386719 6.613281 15.164062 6.414062 12.398438 L 8 12.398438 L 8 13.199219 C 8 13.441406 8.160156 13.601562 8.398438 13.601562 C 8.640625 13.601562 8.800781 13.441406 8.800781 13.199219 L 8.800781 12.398438 L 9.601562 12.398438 C 9.839844 12.398438 10 12.238281 10 12 C 10 11.761719 9.839844 11.601562 9.601562 11.601562 L 8.800781 11.601562 L 8.800781 10.800781 C 8.800781 10.558594 8.640625 10.398438 8.398438 10.398438 C 8.160156 10.398438 8 10.558594 8 10.800781 L 8 11.601562 L 6.414062 11.601562 C 6.613281 8.835938 8.835938 6.613281 11.601562 6.414062 L 11.601562 8 L 10.800781 8 C 10.558594 8 10.398438 8.160156 10.398438 8.398438 C 10.398438 8.640625 10.558594 8.800781 10.800781 8.800781 L 11.601562 8.800781 L 11.601562 9.601562 C 11.601562 9.839844 11.761719 10 12 10 C 12.238281 10 12.398438 9.839844 12.398438 9.601562 L 12.398438 8.800781 L 13.199219 8.800781 C 13.441406 8.800781 13.601562 8.640625 13.601562 8.398438 C 13.601562 8.160156 13.441406 8 13.199219 8 L 12.398438 8 L 12.398438 6.414062 C 15.164062 6.613281 17.386719 8.835938 17.585938 11.601562 L 16 11.601562 L 16 10.800781 C 16 10.558594 15.839844 10.398438 15.601562 10.398438 Z M 11.601562 2.410156 L 11.601562 4 L 10.800781 4 C 10.558594 4 10.398438 4.160156 10.398438 4.398438 C 10.398438 4.640625 10.558594 4.800781 10.800781 4.800781 L 11.601562 4.800781 L 11.601562 5.613281 C 8.398438 5.8125 5.8125 8.398438 5.613281 11.601562 L 4.800781 11.601562 L 4.800781 10.800781 C 4.800781 10.558594 4.640625 10.398438 4.398438 10.398438 C 4.160156 10.398438 4 10.558594 4 10.800781 L 4 11.601562 L 2.410156 11.601562 C 2.613281 6.636719 6.636719 2.613281 11.601562 2.410156 Z M 2.410156 12.398438 L 4 12.398438 L 4 13.199219 C 4 13.441406 4.160156 13.601562 4.398438 13.601562 C 4.640625 13.601562 4.800781 13.441406 4.800781 13.199219 L 4.800781 12.398438 L 5.613281 12.398438 C 5.8125 15.601562 8.398438 18.1875 11.601562 18.386719 L 11.601562 19.199219 L 10.800781 19.199219 C 10.558594 19.199219 10.398438 19.359375 10.398438 19.601562 C 10.398438 19.839844 10.558594 20 10.800781 20 L 11.601562 20 L 11.601562 21.589844 C 6.636719 21.386719 2.613281 17.363281 2.410156 12.398438 Z M 12.398438 21.589844 L 12.398438 20 L 13.199219 20 C 13.441406 20 13.601562 19.839844 13.601562 19.601562 C 13.601562 19.359375 13.441406 19.199219 13.199219 19.199219 L 12.398438 19.199219 L 12.398438 18.386719 C 15.601562 18.1875 18.1875 15.601562 18.386719 12.398438 L 19.199219 12.398438 L 19.199219 13.199219 C 19.199219 13.441406 19.359375 13.601562 19.601562 13.601562 C 19.839844 13.601562 20 13.441406 20 13.199219 L 20 12.398438 L 21.589844 12.398438 C 21.386719 17.363281 17.363281 21.386719 12.398438 21.589844 Z M 12.398438 21.589844"/>
    <path d="M 12.800781 11.601562 L 12.398438 11.601562 L 12.398438 11.199219 C 12.398438 10.960938 12.238281 10.800781 12 10.800781 C 11.761719 10.800781 11.601562 10.960938 11.601562 11.199219 L 11.601562 11.601562 L 11.199219 11.601562 C 10.960938 11.601562 10.800781 11.761719 10.800781 12 C 10.800781 12.238281 10.960938 12.398438 11.199219 12.398438 L 11.601562 12.398438 L 11.601562 12.800781 C 11.601562 13.039062 11.761719 13.199219 12 13.199219 C 12.238281 13.199219 12.398438 13.039062 12.398438 12.800781 L 12.398438 12.398438 L 12.800781 12.398438 C 13.039062 12.398438 13.199219 12.238281 13.199219 12 C 13.199219 11.761719 13.039062 11.601562 12.800781 11.601562 Z M 12.800781 11.601562"/>
</svg>

<svg xmlns="http://www.w3.org/2000/svg" width="32" height="32" viewBox="0 0 24 24">
    <path d="M12 0C5.398 0 0 5.36 0 12s5.398 12 12 12 12-5.398 12-12S18.602 0 12 0zm0 23.2C5.84 23.2.8 18.16.8 12 .8 5.84 5.84.8 12 .8 18.16.8 23.2 5.84 23.2 12c0 6.16-5.04 11.2-11.2 11.2zm0 0"/>
    <path d="M12 1.602C6.281 1.602 1.602 6.282 1.602 12c0 5.762 4.68 10.398 10.398 10.398 5.719 0 10.398-4.636 10.398-10.398 0-5.719-4.68-10.398-10.398-10.398zm9.59 10H20V10.8c0-.242-.16-.403-.398-.403-.243 0-.403.16-.403.403v.8h-.812c-.2-3.203-2.785-5.789-5.989-5.988v-.812h.801c.242 0 .403-.16.403-.403 0-.238-.16-.398-.403-.398h-.8V2.41c4.964.203 8.988 4.227 9.19 9.192zm-5.988-1.204c-.243 0-.403.16-.403.403v.8h-.8c-.239 0-.399.16-.399.399 0 .238.16.398.398.398h.801v.801c0 .242.16.403.403.403.238 0 .398-.16.398-.403v-.8h1.586a5.623 5.623 0 0 1-5.188 5.187V16h.801c.242 0 .403-.16.403-.398 0-.243-.16-.403-.403-.403h-.8v-.8c0-.239-.16-.399-.399-.399-.238 0-.398.16-.398.398v.801H10.8c-.242 0-.403.16-.403.403 0 .238.16.398.403.398h.8v1.586a5.623 5.623 0 0 1-5.187-5.188H8v.801c0 .242.16.403.398.403.243 0 .403-.16.403-.403v-.8h.8c.239 0 .399-.16.399-.399 0-.238-.16-.398-.398-.398H8.8V10.8c0-.242-.16-.403-.403-.403-.238 0-.398.16-.398.403v.8H6.414a5.623 5.623 0 0 1 5.188-5.187V8H10.8c-.242 0-.403.16-.403.398 0 .243.16.403.403.403h.8v.8c0 .239.16.399.399.399.238 0 .398-.16.398-.398V8.8h.801c.242 0 .403-.16.403-.403 0-.238-.16-.398-.403-.398h-.8V6.414a5.623 5.623 0 0 1 5.187 5.188H16V10.8c0-.242-.16-.403-.398-.403zm-4-7.988V4H10.8c-.242 0-.403.16-.403.398 0 .243.16.403.403.403h.8v.812c-3.203.2-5.789 2.785-5.988 5.989h-.812V10.8c0-.242-.16-.403-.403-.403-.238 0-.398.16-.398.403v.8H2.41c.203-4.964 4.227-8.988 9.192-9.19zM2.41 12.398H4v.801c0 .242.16.403.398.403.243 0 .403-.16.403-.403v-.8h.812c.2 3.203 2.785 5.789 5.989 5.988v.812H10.8c-.242 0-.403.16-.403.403 0 .238.16.398.403.398h.8v1.59c-4.964-.203-8.988-4.227-9.19-9.192zm9.988 9.192V20h.801c.242 0 .403-.16.403-.398 0-.243-.16-.403-.403-.403h-.8v-.812c3.203-.2 5.789-2.785 5.988-5.989h.812v.801c0 .242.16.403.403.403.238 0 .398-.16.398-.403v-.8h1.59c-.203 4.964-4.227 8.988-9.192 9.19zm0 0"/>
    <path d="M12.8 11.602h-.402v-.403c0-.238-.16-.398-.398-.398-.238 0-.398.16-.398.398v.403h-.403c-.238 0-.398.16-.398.398 0 .238.16.398.398.398h.403v.403c0 .238.16.398.398.398.238 0 .398-.16.398-.398v-.403h.403c.238 0 .398-.16.398-.398 0-.238-.16-.398-.398-.398zm0 0"/>
</svg>
